X: 4471
T: Bonnie Lass Of Luss, The
R: reel
M: 4/4
K: Edorian
B, E2 A G/A/B A>G|AFdB AFDF|B, E2 A G/A/B AG|AFdF E/E/E E2:|
Eeef e/f/g fe|dAfA dAfA|Aeef e/f/g fe|dBAF E/E/E E2|
Beef e/f/g fe|Adde d/e/f ed|gefd eBdB|AFdF E/E/E E2||

